static/letter_e.svg

<svg fill="none" height="85" viewBox="0 0 71 85" width="71" xmlns="http://www.w3.org/2000/svg"><rect fill="#000" height="85" rx="5" width="70"/><path d="m34.7 18.5-.12-3.3c0-.28.08-.42.24-.42.04 0 .1.1.18.3.24 1.4.36 2.72.36 3.96v2.58c3.4.48 6.76 1.08 10.08 1.8 3.24-4.2 6.42-6.3 9.54-6.3 3.16 0 4.74 1.22 4.74 3.66 0 .44-.1.66-.3.66-.16 0-.24-.18-.24-.54 0-.96-.38-1.64-1.14-2.04-.64-.4-1.44-.6-2.4-.6-2.56 0-5.12 1.86-7.68 5.58 7 1.4 11.64 2.1 13.92 2.1 4.92 0 7.38-1.06 7.38-3.18 0-.36-.08-.64-.24-.84-.12-.32-.18-.5-.18-.54 0-.08.04-.12.12-.12.36 0 .64.34.84 1.02.2.64.3 1.14.3 1.5 0 2.76-2.22 4.14-6.66 4.14-2.52 0-7.96-.92-16.32-2.76-1.36 2.28-3.84 7.14-7.44 14.58 1.64-.52 4.36-.78 8.16-.78s7.04.46 9.72 1.38c.2.08.3.18.3.3 0 .08-.1.12-.3.12l-4.32-.3c-3.4 0-6.3.24-8.7.72-4.36.76-6.54 2.1-6.54 4.02 0 .24.1.62.3 1.14v.06c-.44 0-.86-.48-1.26-1.44-2.32 4.36-4.62 7.86-6.9 10.5 4.52 1.36 8.86 2.64 13.02 3.84 4.2 1.2 7.64 1.8 10.32 1.8 2.72 0 4.82-.34 6.3-1.02 2.04-.88 3.06-2.24 3.06-4.08 0-1.36-.6-3.02-1.8-4.98l-1.74-2.88c0-.04.04-.06.12-.06.12 0 .32.14.6.42 2.48 2.04 3.72 4.4 3.72 7.08s-.94 4.76-2.82 6.24c-1.84 1.52-4.12 2.28-6.84 2.28s-6.82-1.06-12.3-3.18c-5.44-2.08-9.56-3.64-12.36-4.68-4 4.36-8.46 6.54-13.38 6.54-1.6 0-3.26-.48-4.98-1.44-1.72-.92-2.58-2.24-2.58-3.96s.86-3 2.58-3.84 3.52-1.26 5.4-1.26c1.92 0 4.26.42 7.02 1.26 3-3.4 5.48-8.04 7.44-13.92 2-5.92 3.2-11.56 3.6-16.92-2.76-.32-4.98-.48-6.66-.48-7.24 0-10.86 2.48-10.86 7.44 0 3.28 1.88 6.24 5.64 8.88.2.08.3.18.3.3s-.06.18-.18.18-.26-.04-.42-.12c-5.04-2.88-7.56-6.32-7.56-10.32 0-2.24.94-4.04 2.82-5.4 2-1.52 5.06-2.28 9.18-2.28 1.8 0 4.4.2 7.8.6.08-1.36.12-2.36.12-3zm9.84 6.12c-2.68-.6-5.76-1.2-9.24-1.8-.28 5.24-1.36 10.82-3.24 16.74-1.88 5.88-4.38 10.66-7.5 14.34l2.58.78c1.84-1.84 4.18-5.6 7.02-11.28.4-.8 1.14-2.3 2.22-4.5 3.2-6.52 5.92-11.28 8.16-14.28zm-29.28 34.5c-.76 0-1.14-.14-1.14-.42 0-.2.34-.3 1.02-.3 2.6 0 5.2-1.4 7.8-4.2-2.16-.68-4.16-1.02-6-1.02-1.8 0-3.32.28-4.56.84-1.68.76-2.52 1.86-2.52 3.3s.64 2.52 1.92 3.24c1.12.68 2.5 1.02 4.14 1.02s3.56-.64 5.76-1.92 3.9-2.7 5.1-4.26l-2.76-.9c-2.8 3.08-5.72 4.62-8.76 4.62z" fill="#fff"/></svg>

<svg width="71" height="85" viewBox="0 0 71 85" fill="none" xmlns="http://www.w3.org/2000/svg">
<rect width="70" height="85" rx="5" fill="black"/>
<path d="M34.7 18.5L34.58 15.2C34.58 14.92 34.66 14.78 34.82 14.78C34.86 14.78 34.92 14.88 35 15.08C35.24 16.48 35.36 17.8 35.36 19.04C35.36 20.24 35.36 21.1 35.36 21.62C38.76 22.1 42.12 22.7 45.44 23.42C48.68 19.22 51.86 17.12 54.98 17.12C58.14 17.12 59.72 18.34 59.72 20.78C59.72 21.22 59.62 21.44 59.42 21.44C59.26 21.44 59.18 21.26 59.18 20.9C59.18 19.94 58.8 19.26 58.04 18.86C57.4 18.46 56.6 18.26 55.64 18.26C53.08 18.26 50.52 20.12 47.96 23.84C54.96 25.24 59.6 25.94 61.88 25.94C66.8 25.94 69.26 24.88 69.26 22.76C69.26 22.4 69.18 22.12 69.02 21.92C68.9 21.6 68.84 21.42 68.84 21.38C68.84 21.3 68.88 21.26 68.96 21.26C69.32 21.26 69.6 21.6 69.8 22.28C70 22.92 70.1 23.42 70.1 23.78C70.1 26.54 67.88 27.92 63.44 27.92C60.92 27.92 55.48 27 47.12 25.16C45.76 27.44 43.28 32.3 39.68 39.74C41.32 39.22 44.04 38.96 47.84 38.96C51.64 38.96 54.88 39.42 57.56 40.34C57.76 40.42 57.86 40.52 57.86 40.64C57.86 40.72 57.76 40.76 57.56 40.76L53.24 40.46C49.84 40.46 46.94 40.7 44.54 41.18C40.18 41.94 38 43.28 38 45.2C38 45.44 38.1 45.82 38.3 46.34V46.4C37.86 46.4 37.44 45.92 37.04 44.96C34.72 49.32 32.42 52.82 30.14 55.46C34.66 56.82 39 58.1 43.16 59.3C47.36 60.5 50.8 61.1 53.48 61.1C56.2 61.1 58.3 60.76 59.78 60.08C61.82 59.2 62.84 57.84 62.84 56C62.84 54.64 62.24 52.98 61.04 51.02L59.3 48.14C59.3 48.1 59.34 48.08 59.42 48.08C59.54 48.08 59.74 48.22 60.02 48.5C62.5 50.54 63.74 52.9 63.74 55.58C63.74 58.26 62.8 60.34 60.92 61.82C59.08 63.34 56.8 64.1 54.08 64.1C51.36 64.1 47.26 63.04 41.78 60.92C36.34 58.84 32.22 57.28 29.42 56.24C25.42 60.6 20.96 62.78 16.04 62.78C14.44 62.78 12.78 62.3 11.06 61.34C9.34 60.42 8.48 59.1 8.48 57.38C8.48 55.66 9.34 54.38 11.06 53.54C12.78 52.7 14.58 52.28 16.46 52.28C18.38 52.28 20.72 52.7 23.48 53.54C26.48 50.14 28.96 45.5 30.92 39.62C32.92 33.7 34.12 28.06 34.52 22.7C31.76 22.38 29.54 22.22 27.86 22.22C20.62 22.22 17 24.7 17 29.66C17 32.94 18.88 35.9 22.64 38.54C22.84 38.62 22.94 38.72 22.94 38.84C22.94 38.96 22.88 39.02 22.76 39.02C22.64 39.02 22.5 38.98 22.34 38.9C17.3 36.02 14.78 32.58 14.78 28.58C14.78 26.34 15.72 24.54 17.6 23.18C19.6 21.66 22.66 20.9 26.78 20.9C28.58 20.9 31.18 21.1 34.58 21.5C34.66 20.14 34.7 19.14 34.7 18.5ZM44.54 24.62C41.86 24.02 38.78 23.42 35.3 22.82C35.02 28.06 33.94 33.64 32.06 39.56C30.18 45.44 27.68 50.22 24.56 53.9L27.14 54.68C28.98 52.84 31.32 49.08 34.16 43.4C34.56 42.6 35.3 41.1 36.38 38.9C39.58 32.38 42.3 27.62 44.54 24.62ZM15.26 59.12C14.5 59.12 14.12 58.98 14.12 58.7C14.12 58.5 14.46 58.4 15.14 58.4C17.74 58.4 20.34 57 22.94 54.2C20.78 53.52 18.78 53.18 16.94 53.18C15.14 53.18 13.62 53.46 12.38 54.02C10.7 54.78 9.86 55.88 9.86 57.32C9.86 58.76 10.5 59.84 11.78 60.56C12.9 61.24 14.28 61.58 15.92 61.58C17.56 61.58 19.48 60.94 21.68 59.66C23.88 58.38 25.58 56.96 26.78 55.4L24.02 54.5C21.22 57.58 18.3 59.12 15.26 59.12Z" fill="white"/>
</svg>
